X: 3
T: Redican's
M: 6/8
L: 1/8
R: jig
K: Ador
%%text Transition: Start on A, not E
"Am"~E3 ABc|"Em"~B3 GBd|"Am"edB edB|"Em"~c3 BAG|
"Am"~E3 ABc|"Em"~B3 GBd|"Am"edB edB|"Em"BAG "Am"~A3:|
|:"G"def ~g3|"Am"age edB|"G"def gab|"Am"age age|
"G"def ~g3|"Am"age edB|"Am"edB "G"gdB|"Em"BAG "Am"~A3:|
%%text 4/19/08
